!!!OTL: Songgege canjun
!!!ARE: Asia, China, Shanxi Hequ
!! I, 298
!!!SCT: C2100
!!!YEM: Copyright 1995, estate of Helmut Schaffrath.
**kern
*ICvox
*Ivox
*M2/4
*k[f#c#]
*D:
{8.ff#
16ee
8dd
8b
=1
8dd
4.ee
=2
8.ee
16b
8a
8dd
=3
16b
16a
8f#
4e}
=4
{8.ff#
16ee
8dd
8b
=5
8dd
4.ee
=6
8.ee
16b
8a
8dd
=7
16b
16a
8f#
4a}
==
!!!AGN: Shange, Shanqu
!! Han
!!!ONB: ESAC (Essen Associative Code) Database: SENGANSU
!!!AMT: simple duple
!!!AIN: vox
!!!EED: Helmut Schaffrath
!!!EEV: 1.0
*-
